; HEADER_BLOCK_START
; generated by Creality_Print V6.2.2.3203 on 2025-10-16 at 14:43:09
; total layer number: 65
; filament_density: 1.24
; filament_diameter: 1.75
; max_z_height: 10.00
; creality_uuid: 0e2710d9-0fda-44e1-9589-ec0cefc68976
; HEADER_BLOCK_END

; MINX = 102.19
; MINY = 107.95
; MINZ = 0.00
; MAXX = 197.81
; MAXY = 192.05
; MAXZ = 10.02

; THUMBNAIL_BLOCK_START

;
; THUMBNAIL_BLOCK_END

; THUMBNAIL_BLOCK_START

;
; THUMBNAIL_BLOCK_END

; external perimeters extrusion width = 0.42mm
; perimeters extrusion width = 0.45mm
; infill extrusion width = 0.45mm
; solid infill extrusion width = 0.42mm
; top infill extrusion width = 0.42mm
; support material extrusion width = 0.42mm
; first layer extrusion width = 0.50mm

; external perimeters extrusion width = 0.42mm
; perimeters extrusion width = 0.45mm
; infill extrusion width = 0.45mm
; solid infill extrusion width = 0.42mm
; top infill extrusion width = 0.42mm
; support material extrusion width = 0.42mm
; first layer extrusion width = 0.50mm

; external perimeters extrusion width = 0.42mm
; perimeters extrusion width = 0.45mm
; infill extrusion width = 0.45mm
; solid infill extrusion width = 0.42mm
; top infill extrusion width = 0.42mm
; support material extrusion width = 0.42mm
; first layer extrusion width = 0.50mm

; external perimeters extrusion width = 0.42mm
; perimeters extrusion width = 0.45mm
; infill extrusion width = 0.45mm
; solid infill extrusion width = 0.42mm
; top infill extrusion width = 0.42mm
; support material extrusion width = 0.42mm
; first layer extrusion width = 0.50mm

; external perimeters extrusion width = 0.42mm
; perimeters extrusion width = 0.45mm
; infill extrusion width = 0.45mm
; solid infill extrusion width = 0.42mm
; top infill extrusion width = 0.42mm
; support material extrusion width = 0.42mm
; first layer extrusion width = 0.50mm

; external perimeters extrusion width = 0.42mm
; perimeters extrusion width = 0.45mm
; infill extrusion width = 0.45mm
; solid infill extrusion width = 0.42mm
; top infill extrusion width = 0.42mm
; support material extrusion width = 0.42mm
; first layer extrusion width = 0.50mm

; external perimeters extrusion width = 0.42mm
; perimeters extrusion width = 0.45mm
; infill extrusion width = 0.45mm
; solid infill extrusion width = 0.42mm
; top infill extrusion width = 0.42mm
; support material extrusion width = 0.42mm
; first layer extrusion width = 0.50mm

; external perimeters extrusion width = 0.42mm
; perimeters extrusion width = 0.45mm
; infill extrusion width = 0.45mm
; solid infill extrusion width = 0.42mm
; top infill extrusion width = 0.42mm
; support material extrusion width = 0.42mm
; first layer extrusion width = 0.50mm

; external perimeters extrusion width = 0.42mm
; perimeters extrusion width = 0.45mm
; infill extrusion width = 0.45mm
; solid infill extrusion width = 0.42mm
; top infill extrusion width = 0.42mm
; support material extrusion width = 0.42mm
; first layer extrusion width = 0.50mm

; EXECUTABLE_BLOCK_START
EXCLUDE_OBJECT_DEFINE NAME=Finger_V4B_1_.stl_id_0_copy_0 CENTER=117.937,159.706 POLYGON=[[102.187,156.283],[105.187,155.211],[107.037,155.211],[133.687,158.79],[133.687,160.538],[107.037,164.201],[105.187,164.201],[102.187,163.28],[102.187,156.283]]
EXCLUDE_OBJECT_DEFINE NAME=Finger_V4B_2_.stl_id_1_copy_0 CENTER=186.783,165.045 POLYGON=[[175.753,138.045],[197.753,138.045],[197.813,151.032],[197.813,165.793],[197.753,192.045],[175.753,192.045],[175.753,138.045]]
EXCLUDE_OBJECT_DEFINE NAME=Finger_V4B_3_.stl_id_2_copy_0 CENTER=156.964,120.955 POLYGON=[[147.964,107.955],[165.964,107.955],[165.964,127.955],[163.964,133.955],[149.964,133.955],[147.964,127.955],[147.964,107.955]]
EXCLUDE_OBJECT_DEFINE NAME=Finger_V4B_4_.stl_id_3_copy_0 CENTER=154.72,166.955 POLYGON=[[145.687,152.453],[145.753,145.955],[163.753,145.955],[163.753,187.955],[145.753,187.955],[145.687,167.836],[145.687,152.453]]
EXCLUDE_OBJECT_DEFINE NAME=Finger_V4B.stl_id_4_copy_0 CENTER=123.464,114.846 POLYGON=[[110.964,113.972],[135.964,113.972],[135.964,115.719],[110.964,115.719],[110.964,113.972]]
EXCLUDE_OBJECT_DEFINE NAME=Finger_V4B.stl_id_5_copy_0 CENTER=121.251,190.82 POLYGON=[[108.751,189.947],[133.751,189.947],[133.751,191.693],[108.751,191.693],[108.751,189.947]]
EXCLUDE_OBJECT_DEFINE NAME=Finger_V4B.stl_id_6_copy_0 CENTER=121.255,142.338 POLYGON=[[108.755,141.465],[133.755,141.465],[133.755,143.211],[108.755,143.211],[108.755,141.465]]
EXCLUDE_OBJECT_DEFINE NAME=Finger_V4B.stl_id_7_copy_0 CENTER=121.206,177.074 POLYGON=[[108.706,176.201],[133.706,176.201],[133.706,177.947],[108.706,177.947],[108.706,176.201]]
EXCLUDE_OBJECT_DEFINE NAME=Finger_V4B.stl_id_8_copy_0 CENTER=123.464,128.592 POLYGON=[[110.964,127.719],[135.964,127.719],[135.964,129.465],[110.964,129.465],[110.964,127.719]]
M73 P0 R15
M106 S0
M106 P2 S0
;TYPE:Custom
M141 S35;set chamber_temperature
START_PRINT EXTRUDER_TEMP=230 BED_TEMP=50
T0
M204 S2000
M104 S230
G1 Z3 F600
M83
G92 E0
G1 Z1 F600
G90
G21
M83 ; use relative distances for extrusion
G1 E-.8 F1800
G1 Z.2 F30000
M106 S0
;LAYER_CHANGE
;Z:0.2
;HEIGHT:0.2
;BEFORE_LAYER_CHANGE
;0.2
G92 E0

;AFTER_LAYER_CHANGE
;0.2
;_SET_FAN_SPEED_CHANGING_LAYER
SET_VELOCITY_LIMIT ACCEL=1000 ACCEL_TO_DECEL=1000
SET_VELOCITY_LIMIT SQUARE_CORNER_VELOCITY=20
; printing object Finger V4B (3).stl id:2 copy 0
EXCLUDE_OBJECT_START NAME=Finger_V4B_3_.stl_id_2_copy_0
G1 X151.106 Y128.012 Z.6 F30000
G1 Z.2
G1 E.8 F1800
;TYPE:Inner wall
;WIDTH:0.5
G1 F3600
G1 X151.106 Y133.098 E.18363
G1 X150.821 Y133.098 E.01032
G1 X150.821 Y127.098 E.21664
G1 X148.821 Y127.098 E.07221
G1 X148.821 Y108.812 E.66023
G1 X165.106 Y108.812 E.58802
G1 X165.106 Y127.098 E.66023
G1 X163.106 Y127.098 E.07221
G1 X163.106 Y133.098 E.21664
G1 X162.821 Y133.098 E.01032
G1 X162.821 Y127.098 E.21664
G1 X151.106 Y127.098 E.42295
G1 X151.106 Y127.972 E.03156
G1 X151.564 Y127.555 F30000
;TYPE:Outer wall
G1 F3600
G1 X151.564 Y133.555 E.21664
G1 X150.364 Y133.555 E.04333
G1 X150.364 Y127.555 E.21664
G1 X148.364 Y127.555 E.07221
G1 X148.364 Y108.355 E.69324
G1 X165.564 Y108.355 E.62102
G1 X165.564 Y127.555 E.69324
G1 X163.564 Y127.555 E.07221
G1 X163.564 Y133.555 E.21664
G1 X162.364 Y133.555 E.04333
G1 X162.364 Y127.555 E.21664
G1 X151.604 Y127.555 E.3885
G1 E-.8 F1800
G1 Z.6 F30000
G1 X164.969 Y109.887 Z.6
G1 Z.2
G1 E.8 F1800
;TYPE:Bottom surface
;WIDTH:0.506817
G1 F3600
G1 X164.237 Y109.155 E.03797
G1 X163.581 Y109.155 E.02404
G1 X164.764 Y110.338 E.06131
G1 X164.764 Y110.994 E.02404
G1 X162.924 Y109.155 E.09531
G1 X162.268 Y109.155 E.02404
G1 X164.764 Y111.65 E.12931
G1 X164.764 Y112.306 E.02404
G1 X161.612 Y109.155 E.16331
G1 X160.956 Y109.155 E.02404
G1 X164.764 Y112.962 E.19731
G1 X164.764 Y113.618 E.02404
G1 X160.3 Y109.155 E.23131
G1 X159.644 Y109.155 E.02404
G1 X164.764 Y114.274 E.2653
G1 X164.764 Y114.93 E.02404
G1 X158.988 Y109.155 E.2993
G1 X158.332 Y109.155 E.02404
G1 X164.764 Y115.586 E.3333
G1 X164.764 Y116.242 E.02404
G1 X157.676 Y109.155 E.3673
G1 X157.02 Y109.155 E.02404
G1 X164.764 Y116.898 E.4013
G1 X164.764 Y117.554 E.02404
G1 X156.364 Y109.155 E.4353
G1 X155.708 Y109.155 E.02404
G1 X164.764 Y118.21 E.4693
G1 X164.764 Y118.866 E.02404
G1 X155.052 Y109.155 E.50329
G1 X154.396 Y109.155 E.02404
G1 X164.764 Y119.522 E.53729
G1 X164.764 Y120.178 E.02404
G1 X153.74 Y109.155 E.57129
G1 X153.084 Y109.155 E.02404
G1 X164.764 Y120.835 E.60529
M73 P1 R15
G1 X164.764 Y121.491 E.02404
G1 X152.428 Y109.155 E.63929
G1 X151.772 Y109.155 E.02404
G1 X164.764 Y122.147 E.67329
G1 X164.764 Y122.803 E.02404
G1 X151.116 Y109.155 E.70729
G1 X150.46 Y109.155 E.02404
G1 X164.764 Y123.459 E.74128
G1 X164.764 Y124.115 E.02404
G1 X149.803 Y109.155 E.77528
G1 X149.163 Y109.155 E.02346
G1 X164.764 Y124.771 E.80887
G1 X164.764 Y125.427 E.02404
G1 X149.163 Y109.827 E.80845
G1 X149.163 Y110.483 E.02404
G1 X164.764 Y126.083 E.80845
G1 X164.764 Y126.739 E.02404
G1 X149.163 Y111.139 E.80845
G1 X149.163 Y111.795 E.02404
G1 X164.123 Y126.755 E.77528
G1 X163.467 Y126.755 E.02404
G1 X149.163 Y112.451 E.74128
G1 X149.163 Y113.107 E.02404
G1 X162.811 Y126.755 E.70728
G1 X162.155 Y126.755 E.02404
G1 X149.163 Y113.763 E.67328
G1 X149.163 Y114.419 E.02404
G1 X161.499 Y126.755 E.63928
G1 X160.843 Y126.755 E.02404
G1 X149.163 Y115.075 E.60529
G1 X149.163 Y115.731 E.02404
G1 X160.187 Y126.755 E.57129
G1 X159.531 Y126.755 E.02404
G1 X149.163 Y116.387 E.53729
G1 X149.163 Y117.043 E.02404
G1 X158.875 Y126.755 E.50329
G1 X158.219 Y126.755 E.02404
G1 X149.163 Y117.699 E.46929
G1 X149.163 Y118.355 E.02404
G1 X157.563 Y126.755 E.43529
G1 X156.907 Y126.755 E.02404
G1 X149.163 Y119.011 E.40129
G1 X149.163 Y119.667 E.02404
G1 X156.251 Y126.755 E.3673
G1 X155.595 Y126.755 E.02404
G1 X149.163 Y120.323 E.3333
G1 X149.163 Y120.979 E.02404
G1 X154.939 Y126.755 E.2993
G1 X154.283 Y126.755 E.02404
G1 X149.163 Y121.636 E.2653
G1 X149.163 Y122.292 E.02404
G1 X153.627 Y126.755 E.2313
G1 X152.971 Y126.755 E.02404
G1 X149.163 Y122.948 E.1973
G1 X149.163 Y123.604 E.02404
G1 X152.315 Y126.755 E.1633
G1 X151.659 Y126.755 E.02404
G1 X149.163 Y124.26 E.1293
M73 P2 R15
G1 X149.163 Y124.916 E.02404
G1 X151.002 Y126.755 E.09531
G1 X150.346 Y126.755 E.02404
G1 X149.163 Y125.572 E.06131
G1 X149.163 Y126.228 E.02404
G1 X149.896 Y126.961 E.03797
; stop printing object Finger V4B (3).stl id:2 copy 0
; printing object Finger V4B.stl id:4 copy 0
G1 E-.8 F1800
EXCLUDE_OBJECT_END NAME=Finger_V4B_3_.stl_id_2_copy_0
EXCLUDE_OBJECT_START NAME=Finger_V4B.stl_id_4_copy_0
G1 Z.6 F30000
G1 X135.714 Y115.003 Z.6
G1 Z.2
G1 E.8 F1800
;TYPE:Outer wall
;WIDTH:0.5
G1 F3600
G1 X111.214 Y115.003 E.8846
G1 X111.214 Y114.688 E.01135
G1 X135.714 Y114.688 E.8846
G1 X135.714 Y114.963 E.0099
; stop printing object Finger V4B.stl id:4 copy 0
; printing object Finger V4B.stl id:8 copy 0
G1 E-.8 F1800
EXCLUDE_OBJECT_END NAME=Finger_V4B.stl_id_4_copy_0
EXCLUDE_OBJECT_START NAME=Finger_V4B.stl_id_8_copy_0
G1 Z.6 F30000
G1 X135.714 Y128.749 Z.6
G1 Z.2
G1 E.8 F1800
G1 F3600
G1 X111.214 Y128.749 E.8846
G1 X111.214 Y128.435 E.01135
G1 X135.714 Y128.435 E.8846
G1 X135.714 Y128.709 E.0099
; stop printing object Finger V4B.stl id:8 copy 0
; printing object Finger V4B.stl id:6 copy 0
G1 E-.8 F1800
EXCLUDE_OBJECT_END NAME=Finger_V4B.stl_id_8_copy_0
EXCLUDE_OBJECT_START NAME=Finger_V4B.stl_id_6_copy_0
G1 Z.6 F30000
G1 X133.505 Y142.495 Z.6
G1 Z.2
G1 E.8 F1800
G1 F3600
G1 X109.005 Y142.495 E.8846
G1 X109.005 Y142.181 E.01135
G1 X133.505 Y142.181 E.8846
G1 X133.505 Y142.455 E.0099
; stop printing object Finger V4B.stl id:6 copy 0
; printing object Finger V4B (1).stl id:0 copy 0
G1 E-.8 F1800
EXCLUDE_OBJECT_END NAME=Finger_V4B.stl_id_6_copy_0
EXCLUDE_OBJECT_START NAME=Finger_V4B_1_.stl_id_0_copy_0
G1 Z.6 F30000
G1 X137.138 Y164.521 Z.6
G1 Z.2
G1 E.8 F1800
;TYPE:Support
G1 F3600
G1 X107.744 Y164.521 E1.06128
G1 X107.744 Y163.022 E.05415
G1 X109.744 Y163.022 E.07221
G1 X109.744 Y156.39 E.23944
G1 X107.744 Y156.39 E.07221
G1 X107.744 Y154.89 E.05415
G1 X137.138 Y154.89 E1.06128
M73 P2 R14
G1 X137.138 Y164.453 E.34526
G1 X136.22 Y164.316 F30000
G1 F3600
G1 X136.22 Y155.302 E.32546
G1 X135.712 Y155.302 E.01834
G1 X135.712 Y164.11 E.31803
G1 X135.204 Y164.11 E.01834
G1 X135.204 Y155.302 E.31803
G1 X134.697 Y155.302 E.01834
G1 X134.697 Y164.11 E.31803
G1 X134.189 Y164.11 E.01834
G1 X134.189 Y155.302 E.31803
G1 X133.681 Y155.302 E.01834
G1 X133.681 Y164.11 E.31803
G1 X133.173 Y164.11 E.01834
G1 X133.173 Y155.302 E.31803
G1 X132.665 Y155.302 E.01834
G1 X132.665 Y164.11 E.31803
G1 X132.157 Y164.11 E.01834
G1 X132.157 Y155.302 E.31803
G1 X131.649 Y155.302 E.01834
G1 X131.649 Y164.11 E.31803
G1 X131.142 Y164.11 E.01834
G1 X131.142 Y155.302 E.31803
G1 X130.634 Y155.302 E.01834
G1 X130.634 Y164.11 E.31803
G1 X130.126 Y164.11 E.01834
G1 X130.126 Y155.302 E.31803
G1 X129.618 Y155.302 E.01834
G1 X129.618 Y164.11 E.31803
M73 P3 R14
G1 X129.11 Y164.11 E.01834
G1 X129.11 Y155.302 E.31803
G1 X128.602 Y155.302 E.01834
G1 X128.602 Y164.11 E.31803
G1 X128.094 Y164.11 E.01834
G1 X128.094 Y155.302 E.31803
G1 X127.586 Y155.302 E.01834
G1 X127.586 Y164.11 E.31803
G1 X127.079 Y164.11 E.01834
G1 X127.079 Y155.302 E.31803
G1 X126.571 Y155.302 E.01834
G1 X126.571 Y164.11 E.31803
G1 X126.063 Y164.11 E.01834
G1 X126.063 Y155.302 E.31803
G1 X125.555 Y155.302 E.01834
G1 X125.555 Y164.11 E.31803
G1 X125.047 Y164.11 E.01834
G1 X125.047 Y155.302 E.31803
G1 X124.539 Y155.302 E.01834
G1 X124.539 Y164.11 E.31803
G1 X124.031 Y164.11 E.01834
G1 X124.031 Y155.302 E.31803
G1 X123.524 Y155.302 E.01834
G1 X123.524 Y164.11 E.31803
G1 X123.016 Y164.11 E.01834
G1 X123.016 Y155.302 E.31803
G1 X122.508 Y155.302 E.01834
G1 X122.508 Y164.11 E.31803
G1 X122 Y164.11 E.01834
G1 X122 Y155.302 E.31803
G1 X121.492 Y155.302 E.01834
G1 X121.492 Y164.11 E.31803
G1 X120.984 Y164.11 E.01834
G1 X120.984 Y155.302 E.31803
G1 X120.476 Y155.302 E.01834
G1 X120.476 Y164.11 E.31803
G1 X119.968 Y164.11 E.01834
G1 X119.968 Y155.302 E.31803
G1 X119.461 Y155.302 E.01834
G1 X119.461 Y164.11 E.31803
G1 X118.953 Y164.11 E.01834
G1 X118.953 Y155.302 E.31803
G1 X118.445 Y155.302 E.01834
G1 X118.445 Y164.11 E.31803
G1 X117.937 Y164.11 E.01834
G1 X117.937 Y155.302 E.31803
G1 X117.429 Y155.302 E.01834
G1 X117.429 Y164.11 E.31803
G1 X116.921 Y164.11 E.01834
G1 X116.921 Y155.302 E.31803
G1 X116.413 Y155.302 E.01834
G1 X116.413 Y164.11 E.31803
G1 X115.906 Y164.11 E.01834
G1 X115.906 Y155.302 E.31803
G1 X115.398 Y155.302 E.01834
G1 X115.398 Y164.11 E.31803
G1 X114.89 Y164.11 E.01834
G1 X114.89 Y155.302 E.31803
G1 X114.382 Y155.302 E.01834
G1 X114.382 Y164.11 E.31803
G1 X113.874 Y164.11 E.01834
G1 X113.874 Y155.302 E.31803
G1 X113.366 Y155.302 E.01834
G1 X113.366 Y164.11 E.31803
G1 X112.858 Y164.11 E.01834
G1 X112.858 Y155.302 E.31803
G1 X112.35 Y155.302 E.01834
G1 X112.35 Y164.11 E.31803
G1 X111.843 Y164.11 E.01834
G1 X111.843 Y155.302 E.31803
G1 X111.335 Y155.302 E.01834
G1 X111.335 Y164.11 E.31803
G1 X110.827 Y164.11 E.01834
G1 X110.827 Y155.302 E.31803
G1 X110.319 Y155.302 E.01834
G1 X110.319 Y164.11 E.31803
G1 X109.811 Y164.11 E.01834
G1 X109.811 Y163.433 E.02445
G1 X109.303 Y163.433 E.01834
G1 X109.303 Y164.11 E.02445
G1 X108.795 Y164.11 E.01834
G1 X108.795 Y163.433 E.02445
G1 X108.288 Y163.433 E.01834
G1 X108.288 Y164.316 E.03187
G1 E-.8 F1800
G1 Z.6 F30000
G1 X109.811 Y156.184 Z.6
G1 Z.2
G1 E.8 F1800
G1 F3600
G1 X109.811 Y155.302 E.03187
G1 X109.303 Y155.302 E.01834
G1 X109.303 Y155.979 E.02445
G1 X108.795 Y155.979 E.01834
G1 X108.795 Y155.302 E.02445
G1 X108.288 Y155.302 E.01834
G1 X108.288 Y156.184 E.03187
G1 X109.166 Y156.829 F30000
;TYPE:Support interface
;WIDTH:0.42
G1 F3600
G1 X109.166 Y162.583 E.1714
G1 X108.289 Y162.583 E.02613
G1 X108.289 Y156.829 E.1714
G1 X107.412 Y156.829 E.02613
G1 X107.426 Y157.929 E.03278
G3 X107.576 Y160.896 I-12.988 J2.144 E.08866
G2 X107.426 Y161.485 I.219 J.369 E.02011
G1 X107.412 Y162.583 E.03272
G1 X106.535 Y162.583 E.02613
G1 X106.535 Y161.712 E.02594
G1 X105.658 Y161.712 E.02613
G1 X105.658 Y162.583 E.02594
G1 X104.781 Y162.583 E.02613
M73 P4 R14
G1 X104.781 Y161.028 E.04632
G1 X104.648 Y160.896 E.00557
G1 X104.781 Y156.829 E.1212
G1 X105.658 Y156.829 E.02613
G1 X105.658 Y157.702 E.026
G1 X106.535 Y157.702 E.02613
G1 X106.535 Y156.829 E.026
G1 E-.8 F1800
G1 Z.6 F30000
G1 X103.715 Y156.829 Z.6
G1 Z.2
G1 E.8 F1800
G1 F3600
G1 X103.552 Y156.829 E.00487
G1 X103.552 Y162.583 E.1714
G1 X103.904 Y162.583 E.01049
G1 X103.904 Y156.829 E.1714
G1 X104.592 Y156.829 E.02051
G1 X105.113 Y156.39 F30000
;TYPE:Support
;WIDTH:0.5
G1 F3600
G1 X103.113 Y156.39 E.07221
G1 X103.113 Y163.022 E.23944
G1 X105.113 Y163.022 E.07221
G1 X105.113 Y164.521 E.05415
G1 X98.736 Y164.521 E.23024
G1 X98.736 Y154.89 E.34774
G1 X105.113 Y154.89 E.23024
G1 X105.113 Y156.322 E.05168
G1 E-.8 F1800
G1 Z.6 F30000
G1 X104.225 Y164.316 Z.6
G1 Z.2
G1 E.8 F1800
G1 F3600
G1 X104.225 Y163.433 E.03187
G1 X103.717 Y163.433 E.01834
G1 X103.717 Y164.11 E.02445
G1 X103.209 Y164.11 E.01834
G1 X103.209 Y163.433 E.02445
G1 X102.702 Y163.433 E.01832
G1 X102.702 Y155.979 E.26914
G1 X103.209 Y155.979 E.01832
